icons/solid/hand-thumb-up.svg

<svg width="24" height="24" viewBox="0 0 24 24" fill="none" xmlns="http://www.w3.org/2000/svg">
<path d="M7.49281 18.75C7.06823 18.75 6.67296 18.5135 6.51759 18.1184C6.18349 17.2687 6 16.3433 6 15.375C6 13.6259 6.59874 12.0167 7.60244 10.741C7.75335 10.5493 7.97456 10.4321 8.20214 10.344C8.67496 10.1609 9.09254 9.82968 9.4141 9.41967C10.1873 8.43384 11.1617 7.6134 12.2755 7.02021C12.9977 6.63563 13.6243 6.06428 13.9281 5.30464C14.1408 4.7731 14.25 4.20587 14.25 3.63338V3C14.25 2.58579 14.5858 2.25 15 2.25C16.2426 2.25 17.25 3.25736 17.25 4.5C17.25 5.65163 16.9904 6.74263 16.5266 7.71771C16.261 8.27604 16.6336 9 17.2519 9H20.3777C21.4044 9 22.3233 9.69399 22.432 10.7149C22.4769 11.1371 22.5 11.5658 22.5 12C22.5 14.8476 21.5081 17.4636 19.851 19.5212C19.4634 20.0025 18.8642 20.25 18.2462 20.25H14.2302C13.7466 20.25 13.2661 20.172 12.8072 20.0191L9.69278 18.9809C9.23393 18.828 8.75342 18.75 8.26975 18.75H7.49281Z" fill="#0F172A"/>
<path d="M2.33149 10.9771C1.79481 12.3389 1.5 13.8225 1.5 15.375C1.5 16.5951 1.68208 17.7726 2.02056 18.882C2.27991 19.732 3.10418 20.25 3.99289 20.25H4.90067C5.3462 20.25 5.62137 19.7517 5.42423 19.3522C4.83248 18.1529 4.5 16.8028 4.5 15.375C4.5 13.6668 4.97588 12.0698 5.8023 10.7093C6.0473 10.3059 5.77404 9.75 5.30212 9.75H4.24936C3.41733 9.75 2.63655 10.203 2.33149 10.9771Z" fill="#0F172A"/>
</svg>

<svg xmlns="http://www.w3.org/2000/svg" viewBox="0 0 24 24" fill="currentColor" aria-hidden="true">
  <path d="M7.493 18.75c-.425 0-.82-.236-.975-.632A7.48 7.48 0 016 15.375c0-1.75.599-3.358 1.602-4.634.151-.192.373-.309.6-.397.473-.183.89-.514 1.212-.924a9.042 9.042 0 012.861-2.4c.723-.384 1.35-.956 1.653-1.715a4.498 4.498 0 00.322-1.672V3a.75.75 0 01.75-.75 2.25 2.25 0 012.25 2.25c0 1.152-.26 2.243-.723 3.218-.266.558.107 1.282.725 1.282h3.126c1.026 0 1.945.694 2.054 1.715.045.422.068.85.068 1.285a11.95 11.95 0 01-2.649 7.521c-.388.482-.987.729-1.605.729H14.23c-.483 0-.964-.078-1.423-.23l-3.114-1.04a4.501 4.501 0 00-1.423-.23h-.777zM2.331 10.977a11.969 11.969 0 00-.831 4.398 12 12 0 00.52 3.507c.26.85 1.084 1.368 1.973 1.368H4.9c.445 0 .72-.498.523-.898a8.963 8.963 0 01-.924-3.977c0-1.708.476-3.305 1.302-4.666.245-.403-.028-.959-.5-.959H4.25c-.832 0-1.612.453-1.918 1.227z"/>
</svg>
